assets/logo.svg

<svg width="123" height="37" viewBox="0 0 123 37" fill="none" xmlns="http://www.w3.org/2000/svg">
<path d="M0.64 1.38H4.04L7.18 10.62L6.72 10.42L9.46 3.6L10.8 7.58L6.56 16.68L0.64 1.38ZM8.02 1.38H10.9L14.52 10.32L14 10.24L16.7 1.38H19.82L14.14 16.64L8.02 1.38ZM18.697 16L25.337 0.699999H25.497L32.137 16H28.777L24.537 5.24L26.637 3.8L21.557 16H18.697ZM23.237 10.68H27.657L28.677 13.12H22.337L23.237 10.68ZM34.2958 1.28L38.5958 11.88L36.9158 11.54L40.8158 1.28H44.2558L37.5358 16.68L30.8158 1.28H34.2958ZM50.6223 11.42L45.2023 1.28H48.7823L52.5823 8.92L51.7223 8.98L55.4623 1.28H59.0423L53.5223 11.42V16H50.6223V11.42ZM1.9 21.28H4.8V36H1.9V21.28ZM21.7792 36.6L10.6192 26.52L11.4792 27L11.5392 36H8.59922V20.7H8.71922L19.6392 30.74L18.9992 30.46L18.9392 21.28H21.8592V36.6H21.7792ZM25.65 36V21.28H30.05C31.53 21.28 32.79 21.5 33.83 21.94C34.87 22.38 35.7033 22.9667 36.33 23.7C36.97 24.4333 37.4367 25.2533 37.73 26.16C38.0233 27.0667 38.17 27.98 38.17 28.9C38.17 29.9933 37.97 30.98 37.57 31.86C37.1833 32.7267 36.65 33.4733 35.97 34.1C35.29 34.7133 34.5033 35.1867 33.61 35.52C32.7167 35.84 31.77 36 30.77 36H25.65ZM28.55 33.2H30.27C31.0033 33.2 31.67 33.1067 32.27 32.92C32.87 32.72 33.3833 32.4333 33.81 32.06C34.25 31.6867 34.5833 31.22 34.81 30.66C35.05 30.0867 35.17 29.4333 35.17 28.7C35.17 27.74 35.01 26.96 34.69 26.36C34.3833 25.7467 33.9967 25.2733 33.53 24.94C33.0767 24.6067 32.61 24.38 32.13 24.26C31.65 24.1267 31.2433 24.06 30.91 24.06H28.55V33.2ZM43.6797 30.56C43.6797 31.0267 43.8197 31.4733 44.0997 31.9C44.3797 32.3267 44.7464 32.6733 45.1997 32.94C45.6664 33.2067 46.173 33.34 46.7197 33.34C47.3197 33.34 47.853 33.2067 48.3197 32.94C48.7864 32.6733 49.153 32.3267 49.4197 31.9C49.6997 31.4733 49.8397 31.0267 49.8397 30.56V21.28H52.6997V30.62C52.6997 31.7 52.433 32.66 51.8997 33.5C51.3664 34.3267 50.6464 34.98 49.7397 35.46C48.833 35.9267 47.8264 36.16 46.7197 36.16C45.6264 36.16 44.6264 35.9267 43.7197 35.46C42.8264 34.98 42.113 34.3267 41.5797 33.5C41.0464 32.66 40.7797 31.7 40.7797 30.62V21.28H43.6797V30.56ZM64.0569 24.84C63.4969 24.5333 62.9235 24.28 62.3369 24.08C61.7635 23.88 61.2235 23.78 60.7169 23.78C60.0902 23.78 59.5969 23.9067 59.2369 24.16C58.8769 24.4133 58.6969 24.7933 58.6969 25.3C58.6969 25.6467 58.8302 25.96 59.0969 26.24C59.3769 26.5067 59.7302 26.7467 60.1569 26.96C60.5969 27.1733 61.0502 27.3667 61.5169 27.54C61.9435 27.7 62.3635 27.8933 62.7769 28.12C63.2035 28.3333 63.5835 28.6067 63.9169 28.94C64.2502 29.26 64.5169 29.6667 64.7169 30.16C64.9169 30.64 65.0169 31.2333 65.0169 31.94C65.0169 32.6867 64.8235 33.38 64.4369 34.02C64.0502 34.66 63.4835 35.18 62.7369 35.58C61.9902 35.9667 61.0702 36.16 59.9769 36.16C59.4169 36.16 58.8435 36.1067 58.2569 36C57.6835 35.88 57.1169 35.7067 56.5569 35.48C55.9969 35.24 55.4569 34.94 54.9369 34.58L56.2169 32.32C56.5635 32.5733 56.9369 32.8 57.3369 33C57.7502 33.1867 58.1635 33.3333 58.5769 33.44C58.9902 33.5467 59.3702 33.6 59.7169 33.6C60.0635 33.6 60.4102 33.5533 60.7569 33.46C61.1169 33.3533 61.4102 33.18 61.6369 32.94C61.8769 32.7 61.9969 32.3667 61.9969 31.94C61.9969 31.6467 61.8969 31.38 61.6969 31.14C61.5102 30.9 61.2502 30.68 60.9169 30.48C60.5969 30.28 60.2435 30.1067 59.8569 29.96C59.4035 29.7867 58.9369 29.5867 58.4569 29.36C57.9769 29.1333 57.5235 28.86 57.0969 28.54C56.6835 28.2067 56.3435 27.8 56.0769 27.32C55.8235 26.8267 55.6969 26.2267 55.6969 25.52C55.6969 24.6667 55.8835 23.9267 56.2569 23.3C56.6435 22.6733 57.1835 22.18 57.8769 21.82C58.5702 21.4467 59.3702 21.24 60.2769 21.2C61.4635 21.2 62.4235 21.34 63.1569 21.62C63.9035 21.9 64.5702 22.2333 65.1569 22.62L64.0569 24.84ZM66.857 21.28H76.777V24.08H73.197V36H70.297V24.08H66.857V21.28ZM84.0358 21.28C84.9558 21.28 85.7758 21.4 86.4958 21.64C87.2158 21.8667 87.8158 22.2 88.2958 22.64C88.7891 23.0667 89.1624 23.5867 89.4158 24.2C89.6691 24.8 89.7958 25.48 89.7958 26.24C89.7958 26.84 89.7024 27.44 89.5158 28.04C89.3424 28.64 89.0491 29.1867 88.6358 29.68C88.2358 30.1733 87.7024 30.5733 87.0358 30.88C86.3691 31.1733 85.5424 31.32 84.5558 31.32H82.4758V36H79.5758V21.28H84.0358ZM84.5358 28.52C84.9758 28.52 85.3424 28.4467 85.6358 28.3C85.9291 28.1533 86.1558 27.9667 86.3158 27.74C86.4891 27.5133 86.6091 27.28 86.6758 27.04C86.7558 26.7867 86.7958 26.5533 86.7958 26.34C86.7958 26.18 86.7691 25.98 86.7158 25.74C86.6758 25.4867 86.5824 25.2333 86.4358 24.98C86.2891 24.7267 86.0624 24.5133 85.7558 24.34C85.4624 24.1667 85.0624 24.08 84.5558 24.08H82.4758V28.52H84.5358ZM87.2558 30.32L90.8958 36H87.5158L83.7958 30.4L87.2558 30.32ZM93.2867 21.28H96.1867V36H93.2867V21.28ZM99.9859 21.28H110.026V24.08H102.886V27.22H109.206V30.02H102.886V33.2H110.306V36H99.9859V21.28ZM121.166 24.84C120.606 24.5333 120.033 24.28 119.446 24.08C118.873 23.88 118.333 23.78 117.826 23.78C117.2 23.78 116.706 23.9067 116.346 24.16C115.986 24.4133 115.806 24.7933 115.806 25.3C115.806 25.6467 115.94 25.96 116.206 26.24C116.486 26.5067 116.84 26.7467 117.266 26.96C117.706 27.1733 118.16 27.3667 118.626 27.54C119.053 27.7 119.473 27.8933 119.886 28.12C120.313 28.3333 120.693 28.6067 121.026 28.94C121.36 29.26 121.626 29.6667 121.826 30.16C122.026 30.64 122.126 31.2333 122.126 31.94C122.126 32.6867 121.933 33.38 121.546 34.02C121.16 34.66 120.593 35.18 119.846 35.58C119.1 35.9667 118.18 36.16 117.086 36.16C116.526 36.16 115.953 36.1067 115.366 36C114.793 35.88 114.226 35.7067 113.666 35.48C113.106 35.24 112.566 34.94 112.046 34.58L113.326 32.32C113.673 32.5733 114.046 32.8 114.446 33C114.86 33.1867 115.273 33.3333 115.686 33.44C116.1 33.5467 116.48 33.6 116.826 33.6C117.173 33.6 117.52 33.5533 117.866 33.46C118.226 33.3533 118.52 33.18 118.746 32.94C118.986 32.7 119.106 32.3667 119.106 31.94C119.106 31.6467 119.006 31.38 118.806 31.14C118.62 30.9 118.36 30.68 118.026 30.48C117.706 30.28 117.353 30.1067 116.966 29.96C116.513 29.7867 116.046 29.5867 115.566 29.36C115.086 29.1333 114.633 28.86 114.206 28.54C113.793 28.2067 113.453 27.8 113.186 27.32C112.933 26.8267 112.806 26.2267 112.806 25.52C112.806 24.6667 112.993 23.9267 113.366 23.3C113.753 22.6733 114.293 22.18 114.986 21.82C115.68 21.4467 116.48 21.24 117.386 21.2C118.573 21.2 119.533 21.34 120.266 21.62C121.013 21.9 121.68 22.2333 122.266 22.62L121.166 24.84Z" fill="black"/>
</svg>

<svg xmlns="http://www.w3.org/2000/svg" width="123" height="37" fill="none"><path fill="#000" d="M.64 1.38h3.4l3.14 9.24-.46-.2L9.46 3.6l1.34 3.98-4.24 9.1zm7.38 0h2.88l3.62 8.94-.52-.08 2.7-8.86h3.12l-5.68 15.26zM18.697 16 25.337.7h.16l6.64 15.3h-3.36l-4.24-10.76 2.1-1.44-5.08 12.2zm4.54-5.32h4.42l1.02 2.44h-6.34zm11.059-9.4 4.3 10.6-1.68-.34 3.9-10.26h3.44l-6.72 15.4-6.72-15.4zm16.326 10.14-5.42-10.14h3.58l3.8 7.64-.86.06 3.74-7.7h3.58l-5.52 10.14V16h-2.9zM1.9 21.28h2.9V36H1.9zM21.78 36.6 10.62 26.52l.86.48.06 9H8.6V20.7h.12l10.92 10.04-.64-.28-.06-9.18h2.92V36.6zm3.87-.6V21.28h4.4q2.22 0 3.78.66t2.5 1.76a7 7 0 0 1 1.4 2.46q.44 1.36.44 2.74 0 1.64-.6 2.96a6.75 6.75 0 0 1-1.6 2.24 7.3 7.3 0 0 1-2.36 1.42q-1.34.48-2.84.48zm2.9-2.8h1.72q1.1 0 2-.28.9-.3 1.54-.86a3.55 3.55 0 0 0 1-1.4q.36-.86.36-1.96 0-1.44-.48-2.34-.46-.92-1.16-1.42a4 4 0 0 0-1.4-.68q-.72-.2-1.22-.2h-2.36zm15.13-2.64q0 .7.42 1.34t1.1 1.04q.7.4 1.52.4.9 0 1.6-.4a3.06 3.06 0 0 0 1.1-1.04q.42-.64.42-1.34v-9.28h2.86v9.34q0 1.62-.8 2.88a5.7 5.7 0 0 1-2.16 1.96q-1.36.7-3.02.7-1.641 0-3-.7a5.7 5.7 0 0 1-2.14-1.96q-.8-1.26-.8-2.88v-9.34h2.9zm20.377-5.72q-.84-.46-1.72-.76-.861-.3-1.62-.3-.94 0-1.48.38t-.54 1.14q0 .52.4.94.42.4 1.06.72.66.32 1.36.58.639.24 1.26.58.639.32 1.14.82.5.48.8 1.22.3.72.3 1.78a3.95 3.95 0 0 1-.58 2.08q-.58.96-1.7 1.56-1.12.58-2.76.58-.84 0-1.72-.16a10 10 0 0 1-1.7-.52 9.2 9.2 0 0 1-1.62-.9l1.28-2.26q.52.38 1.12.68.62.28 1.24.44t1.14.16 1.04-.14q.54-.16.88-.52.36-.36.36-1 0-.44-.3-.8a2.8 2.8 0 0 0-.78-.66q-.48-.3-1.06-.52a20 20 0 0 1-1.4-.6q-.72-.34-1.36-.82a4.1 4.1 0 0 1-1.02-1.22q-.38-.74-.38-1.8 0-1.28.56-2.22a4.05 4.05 0 0 1 1.62-1.48q1.04-.56 2.4-.62 1.78 0 2.88.42 1.12.42 2 1zm2.8-3.56h9.92v2.8h-3.58V36h-2.9V24.08h-3.44zm17.179 0q1.38 0 2.46.36 1.08.34 1.8 1 .74.64 1.12 1.56.38.9.38 2.04 0 .9-.28 1.8a4.5 4.5 0 0 1-.88 1.64q-.6.74-1.6 1.2-1 .44-2.48.44h-2.08V36h-2.9V21.28zm.5 7.24q.66 0 1.1-.22a1.8 1.8 0 0 0 .68-.56q.26-.34.36-.7.12-.38.12-.7 0-.24-.08-.6a2.2 2.2 0 0 0-.28-.76q-.22-.38-.68-.64-.441-.26-1.2-.26h-2.08v4.44zm2.72 1.8 3.64 5.68h-3.38l-3.72-5.6zm6.03-9.04h2.9V36h-2.9zm6.7 0h10.04v2.8h-7.14v3.14h6.32v2.8h-6.32v3.18h7.42V36h-10.32zm21.18 3.56q-.84-.46-1.72-.76-.86-.3-1.62-.3-.94 0-1.48.38t-.54 1.14q0 .52.4.94.42.4 1.06.72.66.32 1.36.58.64.24 1.26.58.64.32 1.14.82.5.48.8 1.22.3.72.3 1.78 0 1.12-.58 2.08t-1.7 1.56q-1.119.58-2.76.58-.84 0-1.72-.16a10 10 0 0 1-1.7-.52 9.2 9.2 0 0 1-1.62-.9l1.28-2.26q.52.38 1.12.68a7.7 7.7 0 0 0 1.24.44q.621.16 1.14.16.52 0 1.04-.14.54-.16.88-.52.36-.36.36-1 0-.44-.3-.8a2.8 2.8 0 0 0-.78-.66q-.48-.3-1.06-.52-.68-.26-1.4-.6t-1.36-.82a4.1 4.1 0 0 1-1.02-1.22q-.38-.74-.38-1.8 0-1.28.56-2.22a4.05 4.05 0 0 1 1.62-1.48q1.041-.56 2.4-.62 1.78 0 2.88.42 1.12.42 2 1z"/></svg>
